src/status/24/audio-input-microphone-muted-panel.svg

<svg width="24" height="24" version="1.1" viewBox="0 0 24 24" xmlns="http://www.w3.org/2000/svg" xmlns:xlink="http://www.w3.org/1999/xlink">
 <defs>
  <filter id="alpha" x="0%" y="0%" width="100%" height="100%">
   <feColorMatrix in="SourceGraphic" values="0 0 0 0 1 0 0 0 0 1 0 0 0 0 1 0 0 0 1 0"/>
  </filter>
  <mask id="mask0">
   <g filter="url(#alpha)">
    <rect width="24" height="24" style="fill-opacity:.4;fill:rgb(0%,0%,0%)"/>
   </g>
  </mask>
  <clipPath id="clip1">
   <rect width="24" height="24"/>
  </clipPath>
  <g id="surface5" clip-path="url(#clip1)">
   <path d="m15.601562 12.546875c0.023438-0.171875 0.039063-0.351563 0.039063-0.535156v-6.148438c0-2.03125-1.628906-3.683593-3.640625-3.683593-1.832031 0-3.351562 1.382812-3.597656 3.179687" style="fill:rgb(18.039216%,20.392157%,25.098041%)"/>
   <path d="m14.378906 14.800781c0.050782-0.046875 0.101563-0.09375 0.148438-0.140625" style="fill:rgb(18.039216%,20.392157%,25.098041%)"/>
   <path d="m8.367188 11.964844v0.046875c0 2.03125 1.628906 3.679687 3.632812 3.679687h0.085938" style="fill:rgb(18.039216%,20.392157%,25.098041%)"/>
   <path d="m13.160156 16.765625c-0.371094 0.09375-0.765625 0.144531-1.167968 0.144531-2.675782 0-4.84375-2.199218-4.84375-4.910156h-2.417969c0 3.652344 2.621093 6.667969 6.0625 7.246094v1.34375h-1.214844v1.230468h4.84375v-1.230468h-1.210937v-1.34375c0.652343-0.109375 1.277343-0.308594 1.859374-0.582032" style="fill:rgb(18.039216%,20.392157%,25.098041%)"/>
   <path d="m15.382812 15.511719c-0.050781 0.050781-0.097656 0.09375-0.148437 0.140625" style="fill:rgb(18.039216%,20.392157%,25.098041%)"/>
   <path d="m18.449219 15.398438c0.523437-1.015626 0.820312-2.171876 0.820312-3.398438h-2.425781c0 0.539062-0.085938 1.0625-0.246094 1.546875" style="fill:rgb(18.039216%,20.392157%,25.098041%)"/>
   <path d="m16.960938 17.378906c0.046874-0.046875 0.097656-0.09375 0.144531-0.140625" style="fill:rgb(18.039216%,20.392157%,25.098041%)"/>
   <path d="m3.039062 5.050781 1.734376-1.734375 16.28125 16.28125-1.734376 1.734375z" style="fill:rgb(18.039216%,20.392157%,25.098041%)"/>
  </g>
 </defs>
 <g id="surface1">
  <use mask="url(#mask0)" xlink:href="#surface5"/>
 </g>
</svg>

<svg xmlns="http://www.w3.org/2000/svg" xmlns:xlink="http://www.w3.org/1999/xlink" width="24" height="24" viewBox="0 0 24 24" version="1.1">
<defs>
<filter id="alpha" filterUnits="objectBoundingBox" x="0%" y="0%" width="100%" height="100%">
  <feColorMatrix type="matrix" in="SourceGraphic" values="0 0 0 0 1 0 0 0 0 1 0 0 0 0 1 0 0 0 1 0"/>
</filter>
<mask id="mask0">
  <g filter="url(#alpha)">
<rect x="0" y="0" width="24" height="24" style="fill:rgb(0%,0%,0%);fill-opacity:0.4;stroke:none;"/>
  </g>
</mask>
<clipPath id="clip1">
  <rect x="0" y="0" width="24" height="24"/>
</clipPath>
<g id="surface5" clip-path="url(#clip1)">
<path style=" stroke:none;fill-rule:nonzero;fill:rgb(18.039216%,20.392157%,25.098041%);fill-opacity:1;" d="M 15.601562 12.546875 C 15.625 12.375 15.640625 12.195312 15.640625 12.011719 L 15.640625 5.863281 C 15.640625 3.832031 14.011719 2.179688 12 2.179688 C 10.167969 2.179688 8.648438 3.5625 8.402344 5.359375 "/>
<path style=" stroke:none;fill-rule:nonzero;fill:rgb(18.039216%,20.392157%,25.098041%);fill-opacity:1;" d="M 14.378906 14.800781 C 14.429688 14.753906 14.480469 14.707031 14.527344 14.660156 "/>
<path style=" stroke:none;fill-rule:nonzero;fill:rgb(18.039216%,20.392157%,25.098041%);fill-opacity:1;" d="M 8.367188 11.964844 L 8.367188 12.011719 C 8.367188 14.042969 9.996094 15.691406 12 15.691406 C 12.03125 15.691406 12.058594 15.691406 12.085938 15.691406 "/>
<path style=" stroke:none;fill-rule:nonzero;fill:rgb(18.039216%,20.392157%,25.098041%);fill-opacity:1;" d="M 13.160156 16.765625 C 12.789062 16.859375 12.394531 16.910156 11.992188 16.910156 C 9.316406 16.910156 7.148438 14.710938 7.148438 12 L 4.730469 12 C 4.730469 15.652344 7.351562 18.667969 10.792969 19.246094 L 10.792969 20.589844 L 9.578125 20.589844 L 9.578125 21.820312 L 14.421875 21.820312 L 14.421875 20.589844 L 13.210938 20.589844 L 13.210938 19.246094 C 13.863281 19.136719 14.488281 18.9375 15.070312 18.664062 "/>
<path style=" stroke:none;fill-rule:nonzero;fill:rgb(18.039216%,20.392157%,25.098041%);fill-opacity:1;" d="M 15.382812 15.511719 C 15.332031 15.5625 15.285156 15.605469 15.234375 15.652344 "/>
<path style=" stroke:none;fill-rule:nonzero;fill:rgb(18.039216%,20.392157%,25.098041%);fill-opacity:1;" d="M 18.449219 15.398438 C 18.972656 14.382812 19.269531 13.226562 19.269531 12 L 16.84375 12 C 16.84375 12.539062 16.757812 13.0625 16.597656 13.546875 "/>
<path style=" stroke:none;fill-rule:nonzero;fill:rgb(18.039216%,20.392157%,25.098041%);fill-opacity:1;" d="M 16.960938 17.378906 C 17.007812 17.332031 17.058594 17.285156 17.105469 17.238281 "/>
<path style=" stroke:none;fill-rule:nonzero;fill:rgb(18.039216%,20.392157%,25.098041%);fill-opacity:1;" d="M 3.039062 5.050781 L 4.773438 3.316406 L 21.054688 19.597656 L 19.320312 21.332031 Z M 3.039062 5.050781 "/>
</g>
</defs>
<g id="surface1">
<use xlink:href="#surface5" mask="url(#mask0)"/>
</g>
</svg>
